X:154
T: LETZTE ROSE WIE BLUEHST DU SO EINSAM
N: F0286
O: Europa, Mitteleuropa, Deutschland; Irland
R: Jugend - Lied, Jahreszeiten, Winter
M: 3/4
L: 1/16
K: F
F3G | A4f3ed3c | c4A2z2
F3G | A2c4A2G3F | F8
F3G | A4f3ed3c | c4A2z2
F3G | A2c4A2G3F | F8
c3A | f6e2d3c | c4A2z2
c3A | f6e2d2^c2 | d3ef4
F3G | A4f3ed3c | c4A2z2
F3G | A2c4A2G3F | F8

@@@ Tune index: 5585
